X: 722
T: Hongdu paotai
L: 1/8
M: 2/4
K: G
d B d e [I:setbarnb 1]| 
F ED2 | 
A B d B/ d/ | 
A4 | 
d B d e | 
F B A G | 
F> ED2 | 
D D/ E/ F E | 
D4 |]

@@@ Tune index: 9596
